fs/chat_cursor_16_filled.svg

<svg viewBox="0 0 16 16" fill="none" xmlns="http://www.w3.org/2000/svg" height="1em" width="1em">
  <path d="M2.00001 6C2.00001 3.23858 4.23859 1 7.00001 1C9.76144 1 12 3.23858 12 6C12 6.36249 11.9614 6.71596 11.8882 7.05655L9.86124 5.39797C8.71881 4.46316 7.00342 5.27567 7.003 6.75183L7.00177 11H7.00001C6.12733 11 5.30568 10.776 4.59074 10.3822L2.64559 10.9742C2.46894 11.028 2.27703 10.98 2.14646 10.8494C2.01589 10.7189 1.96791 10.5269 2.02168 10.3503L2.61434 8.40297C2.22268 7.68951 2.00001 6.87012 2.00001 6ZM9.22796 6.1719L14.7244 10.6695C15.2699 11.1158 14.9543 11.9999 14.2494 11.9999H11.2631C11.1064 11.9999 10.9587 12.0735 10.8642 12.1986L9.34944 14.2039C8.91573 14.7781 8.00077 14.4712 8.00098 13.7516L8.003 6.75212C8.00301 6.71258 8.00589 6.67415 8.01141 6.63695C8.09412 6.07888 8.76895 5.7963 9.22796 6.1719Z" fill="#212121"/>
</svg>

<svg viewBox="0 0 16 16" fill="none" xmlns="http://www.w3.org/2000/svg" height="1em" width="1em">
  <path d="M2 6a5 5 0 1 1 9.888 1.057L9.861 5.398c-1.142-.935-2.858-.122-2.858 1.354L7.002 11H7a4.98 4.98 0 0 1-2.41-.618l-1.944.592a.5.5 0 0 1-.624-.624l.592-1.947A4.98 4.98 0 0 1 2 6Zm7.228.172 5.496 4.497c.546.447.23 1.33-.475 1.33h-2.986a.5.5 0 0 0-.399.2L9.35 14.204c-.433.574-1.348.267-1.348-.452l.002-7a.75.75 0 0 1 1.225-.58Z" fill="#212121"/>
</svg>
